src/images/check-icon.svg

<svg width="28" height="34" viewBox="0 0 28 34" fill="none" xmlns="http://www.w3.org/2000/svg">
<path d="M17.0953 1.7251H5.09528C4.29963 1.7251 3.53656 2.04117 2.97396 2.60378C2.41135 3.16639 2.09528 3.92945 2.09528 4.7251V28.7251C2.09528 29.5207 2.41135 30.2838 2.97396 30.8464C3.53656 31.409 4.29963 31.7251 5.09528 31.7251H23.0953C23.8909 31.7251 24.654 31.409 25.2166 30.8464C25.7792 30.2838 26.0953 29.5207 26.0953 28.7251V10.7251L17.0953 1.7251Z" stroke="#FF8761" stroke-width="3" stroke-linecap="round" stroke-linejoin="round"/>
<path d="M17.0954 1.7251V10.7251H26.0954" stroke="#FF8761" stroke-width="3" stroke-linecap="round" stroke-linejoin="round"/>
<path d="M20.0953 18.225H8.09532" stroke="#FF8761" stroke-width="3" stroke-linecap="round" stroke-linejoin="round"/>
<path d="M20.0953 24.2249H8.09532" stroke="#FF8761" stroke-width="3" stroke-linecap="round" stroke-linejoin="round"/>
<path d="M11.0953 12.2252H9.59532H8.09532" stroke="#FF8761" stroke-width="3" stroke-linecap="round" stroke-linejoin="round"/>
</svg>

<svg width="28" height="34" fill="none" xmlns="http://www.w3.org/2000/svg"><path d="M17.1 1.73h-12a3 3 0 00-3 3v24a3 3 0 003 3h18a3 3 0 003-3v-18l-9-9z" stroke="#FF8761" stroke-width="3" stroke-linecap="round" stroke-linejoin="round"/><path d="M17.1 1.73v9h9M20.1 18.23h-12M20.1 24.22h-12M11.1 12.23h-3" stroke="#FF8761" stroke-width="3" stroke-linecap="round" stroke-linejoin="round"/></svg>
